X:1
T:The Well-Tempered Clavier Book II - II
T:BWV 871    (A = 415 Hz)
T:J. S. Bach
%%score { ( 1 3 4 ) | ( 2 5 ) }
L:1/8
M:4/4
K:Eb
V:1 treble nm="Harp"
V:3 treble 
V:4 treble 
V:2 bass 
V:5 bass 
V:1
"^Praeludium" z/ G/F/G/ A/F/E/F/ G/E/D/E/ F/D/C/D/ | EcFc EcD=B | %2
 C/E/G/c/ D/c/=B/=A/ D/G/B/d/ E/d/c/B/ | E/A/c/e/ F/e/d/c/ F/B/d/f/ G/f/e/d/ | %4
 e/c/B/c/ d/B/A/B/ c/B/A/G/ F/ z/ z | d/B/A/B/ c/A/G/A/ B/A/G/F/ E/ z/ z | %6
 c/A/G/A/ B/G/F/G/ A/F/E/F/ A/4G/4A/4G/4A | A/G/F/G/ A/4G/4A/4G/4A A/d/f/e/ d/c/B/A/ | %8
 G/B/e/G/ F/e/F/d/ e/B/A/B/ c/A/G/A/ | B/G/F/G/ A/F/E/F/ G/E/D/E/ CA | %10
 B,GA,F G,/B,/E/G/- G/F/E/D/ | E/G/c BA G4 | z/ G/F/G/ A/F/E/F/ G/E/D/E/ F/D/C/D/ | EcFc EcD=B | %14
 C/E/G/c/ D/c/=B/=A/ D/G/B/d/ E/d/c/B/ | E/A/c/e/ F/e/d/c/ F/B/d/f/ G/f/e/d/ | %16
 e/c/B/c/ d/B/A/B/ c/B/A/G/ F/ z/ z | d/B/A/B/ c/A/G/A/ B/A/G/F/ E/ z/ z | %18
 c/A/G/A/ B/G/F/G/ A/F/E/F/ A/4G/4A/4G/4A | A/G/F/G/ A/4G/4A/4G/4A A/d/f/e/ d/c/B/A/ | %20
 G/B/e/G/ F/e/F/d/ e/B/A/B/ c/A/G/A/ | B/G/F/G/ A/F/E/F/ G/E/D/E/ CA | %22
 B,GA,F G,/B,/E/G/- G/F/E/D/ | E/G/c BA G4 | z/ B/=A/B/ e/B/A/B/ f/B/A/B/ a/B/A/B/ | %25
 ge d/4c/4=B/c fd c/4B/4=A/B | e/E/D/E/ G/E/D/E/ B/E/D/E/ _d/E/D/E/ | cA G/4F/4=E/F BG F/4E/4D/E | %28
 A/c/=B/c/ _d/c/B/c/ G/c/B/c/ d/c/B/c/ | F/c/d/=e/ f/B/=A/B/ g/f/e/d/ c/B/_A/G/ | %30
 A/F/=E/F/ c/A/G/A/ f/e/_d/c/ B/A/G/F/ | G/E/D/E/ B/G/F/G/ e/_d/c/B/ A/G/F/=E/ | F=ABc _d=efg | %33
 c/=e/f/a/ B/g/f/e/ A/c/e/f/ G/_d/c/B/ | A/G/F/=E/ F/A/C/_E/ D/A/F/D/ B,/ z/ z | %35
 G/F/E/D/ E/G/=B,/D/ C/G/E/C/ A,/ z/ z | F/E/D/C/ D/F/A/C/ =B,/F/D/B,/ G,/B,/C/D/ | %37
 z G c4- c/c/B/A/ | G/A/B/G/ C/_d/c/B/ A/B/c/A/ D/e/=d/c/ | =B/G/c/d/ ed !fermata!c4 | %40
 z/ B/=A/B/ e/B/A/B/ f/B/A/B/ a/B/A/B/ | ge d/4c/4=B/c fd c/4B/4=A/B | %42
 e/E/D/E/ G/E/D/E/ B/E/D/E/ _d/E/D/E/ | cA G/4F/4=E/F BG F/4E/4D/E | %44
 A/c/=B/c/ _d/c/B/c/ G/c/B/c/ d/c/B/c/ | F/c/d/=e/ f/B/=A/B/ g/f/e/d/ c/B/_A/G/ | %46
 A/F/=E/F/ c/A/G/A/ f/e/_d/c/ B/A/G/F/ | G/E/D/E/ B/G/F/G/ e/_d/c/B/ A/G/F/=E/ | F=ABc _d=efg | %49
 c/=e/f/a/ B/g/f/e/ A/c/e/f/ G/_d/c/B/ | A/G/F/=E/ F/A/C/_E/ D/A/F/D/ B,/ z/ z | %51
 G/F/E/D/ E/G/=B,/D/ C/G/E/C/ A,/ z/ z | F/E/D/C/ D/F/A/C/ =B,/F/D/B,/ G,/B,/C/D/ | %53
 z G c4- c/c/B/A/ | G/A/B/G/ C/_d/c/B/ A/B/c/A/ D/e/=d/c/ | =B/G/c/d/ ed !fermata!c4 | z8 | %57
[M:4/4]"^Fuga" z8 | z cBc dG cB/=A/ | B2 A2 Gc F2- | FE/D/ GF E2 E/4D/4E/4D/4E/4D/4E/4D/4 | %61
 CG c2- cB/c/ d/=e/f/g/ | a/f/c'/b/ a/g/f/e/ d/B/f/e/ d/c/B/A/ | G z z2 z4 | z z/ g/ e>f gc fe/d/ | %65
 eA _dc/B/ cF BA/G/ | A>A DE F ^D2 ^E- | E_E A>A G>G c>B- | B/B/A- A/G/A/B/ =E z/ A/ _d>c- | %69
 c/c/B- B/=A/B/c/ ^FG- G/GF/ | Ggef gc fe/d/ | e/d/c/=B/ c/e/f/g/ a/c/B/=A/ B/g/f/g/ | %72
 e z z2 z g=e^f | gc fe/d/ e>e d=e | fB ed/c/ dG e2- | e/e/d- d/c=B/ cg de/f/ | ed z/ cB/ A>A G2- | %77
 G2 c4- c/=B/c/d/ | GA G>=A ^A=B z/ G/c/^F/ | GE D2 C z z c | =BcdG c_B/A/ Bc | ABcF BA/G/ AG- | %82
 G=A/B/4c/4 Fc dc/=B/ c2 | z/ d/e/=B/ c2- c2 z B | !arpeggio!!fermata!c8 |] %85
V:2
 C,CF,C E,CD,=B, | C,/G,/F,/G,/ A,/F,/E,/F,/ G,/E,/D,/E,/ F,/D,/C,/D,/ | E,C,F,D, G,F,G,E, | %3
 A,G,=A,F, B,A,=B,G, | %4
 C/[I:staff -1]A/G/A/[I:staff +1] B,/[I:staff -1]G/F/G/[I:staff +1] A, z/ z[I:staff -1] E/D/C/ | %5
[I:staff +1] B,/[I:staff -1]G/F/G/[I:staff +1] A,/[I:staff -1]F/E/F/[I:staff +1] G, z/ z[I:staff -1] _D/C/B,/ | %6
[I:staff +1] A,/[I:staff -1]F/E/F/[I:staff +1] G,/[I:staff -1]E/D/E/[I:staff +1] F,/[I:staff -1]D/C/D/[I:staff +1] E,/C/B,/C/ | %7
 D,/B,/A,/B,/ C,/A,/G,/A,/ B,,B, z D, | E,C,A,,B,, E,,E,A,,E, | %9
 G,,E,F,,D, E,/G,/F,/G,/ A,/F,/E,/F,/ | G,/E,/D,/E,/ F,/D,/C,/D,/ E,G,A,B, | %11
 CA,B,B,, z/ E,/B,,/G,,/ E,,2 | C,CF,C E,CD,=B, | %13
 C,/G,/F,/G,/ A,/F,/E,/F,/ G,/E,/D,/E,/ F,/D,/C,/D,/ | E,C,F,D, G,F,G,E, | A,G,=A,F, B,A,=B,G, | %16
 C/[I:staff -1]A/G/A/[I:staff +1] B,/[I:staff -1]G/F/G/[I:staff +1] A, z/ z[I:staff -1] E/D/C/ | %17
[I:staff +1] B,/[I:staff -1]G/F/G/[I:staff +1] A,/[I:staff -1]F/E/F/[I:staff +1] G, z/ z[I:staff -1] _D/C/B,/ | %18
[I:staff +1] A,/[I:staff -1]F/E/F/[I:staff +1] G,/[I:staff -1]E/D/E/[I:staff +1] F,/[I:staff -1]D/C/D/[I:staff +1] E,/C/B,/C/ | %19
 D,/B,/A,/B,/ C,/A,/G,/A,/ B,,B, z D, | E,C,A,,B,, E,,E,A,,E, | %21
 G,,E,F,,D, E,/G,/F,/G,/ A,/F,/E,/F,/ | G,/E,/D,/E,/ F,/D,/C,/D,/ E,G,A,B, | %23
 CA,B,B,, z/ E,/B,,/G,,/ E,,2 | E,F,G,E, D,C,D,B,, | %25
 E,/G,/A,/G,/ A,,/G,/A,/G,/ D,/F,/G,/F,/ G,,/F,/G,/F,/ | C,CB,A, G,F,G,E, | %27
 A,/C/_D/C/ _D,/C/D/C/ G,/B,/C/B,/ C,/B,/C/B,/ | F,A,F,_D =E,G,_E,C | D,F,_D,B, C,=D,=E,C, | %30
 F,/A,/G,/A,/ E,/C/B,/C/ _D,F,B,_D | E,/G,/F,/G,/ _D,/B,/A,/B,/ C,E,A,C | %32
 _D,/F,/E,/F,/ _G,/F,/E,/F,/ B,,/F,/=G,/A,/ G,/F,/=E,/F,/ | A,,F,,C,C,, F,,A,,B,,C, | %34
 F,G,A,F, B,B,, z/ A,/G,/F,/ | E,F,G,E, A,A,, z/ G,/F,/E,/ | D,E,F,D, G,G,, z/ F,/E,/D,/ | %37
 C,/D,/E,/C,/ A,,/G,/F,/E,/ D,/E,/F,/D,/ B,,/A,/G,/F,/ | E,D,E,=E, F,E,F,^F, | %39
 G,/F,/E,/F,/ G,G,, C,,/C,/E,/G,/ !fermata!C2 | E,F,G,E, D,C,D,B,, | %41
 E,/G,/A,/G,/ A,,/G,/A,/G,/ D,/F,/G,/F,/ G,,/F,/G,/F,/ | C,CB,A, G,F,G,E, | %43
 A,/C/_D/C/ _D,/C/D/C/ G,/B,/C/B,/ C,/B,/C/B,/ | F,A,F,_D =E,G,_E,C | D,F,_D,B, C,=D,=E,C, | %46
 F,/A,/G,/A,/ E,/C/B,/C/ _D,F,B,_D | E,/G,/F,/G,/ _D,/B,/A,/B,/ C,E,A,C | %48
 _D,/F,/E,/F,/ _G,/F,/E,/F,/ B,,/F,/=G,/A,/ G,/F,/=E,/F,/ | A,,F,,C,C,, F,,A,,B,,C, | %50
 F,G,A,F, B,B,, z/ A,/G,/F,/ | E,F,G,E, A,A,, z/ G,/F,/E,/ | D,E,F,D, G,G,, z/ F,/E,/D,/ | %53
 C,/D,/E,/C,/ A,,/G,/F,/E,/ D,/E,/F,/D,/ B,,/A,/G,/F,/ | E,D,E,=E, F,E,F,^F, | %55
 G,/F,/E,/F,/ G,G,, C,,/C,/E,/G,/ !fermata!C2 | z8 |[M:4/4] z8 | z8 | z8 | z G,E,F, G,C, F,E,/D,/ | %61
 E,/G,/C,/D,/ E,/F,/G,/=A,/ B,/D/G,/A,/ B,/C/D/=E/ | FA,F,A, B, z z2 | %63
 z C,=B,,C, D,G,, C,B,,/=A,,/ | =B,,G,,C,A,, E,,>A, D,G, | C,>F, ^A,,E, _A,,>_D, G,,C, | %66
 F,,/C,/F,- F,/E,/D,/C,/ =B,,/G,,/C,/_B,,/ A,,/C,/D,, | E,,>C,, F,,^A,, =B,,C,_A,,_B,, | %68
 C,F,, B,,A,,/G,,/ A,,A,/F,/ B,C | D,G, C,B,,/=A,,/ B,,E,C,D, | G,, z z2 z4 | %71
 z G,A,G, F,D G,=A,/=B,/ | C/D/E/F/ G/E/D/C/ B,/=A,/B,- B,/A,/D/C/ | %73
 B,/G,/C =A,=B, CF, _B,_A,/G,/ | =A,D- D/C/F/E/ D/C/_D- D/C/B,/_A,/ | B,=B,CD G,/C/B,/C/- C/B,/C- | %76
 C=B, C2- CB, C>B,- | B,/G,/ C2 _B, A,/[I:staff -1]G/F/[I:staff +1]E/ D2- | DCDC F, G,2 =A, | %79
 G,2 z z/ F,/ ^D, z z2 | z ^D=B,C G, z z2 | z ^CG,A, =E,=CA,B, | %82
 CF, B,A,/G,/ A,G, G,[I:staff -1]E | %83
[I:staff +1] z2 z z/[I:staff -1] D/ E2[I:staff +1] z[I:staff -1] D | !arpeggio!C8 |] %85
V:3
 x8 | x8 | x8 | x8 | x8 | x8 | x8 | x8 | x8 | x8 | x8 | E2- E/ED/ B,4 | x8 | x8 | x8 | x8 | x8 | %17
 x8 | x8 | x8 | x8 | x8 | x8 | E2- E/ED/ B,4 | x8 | x8 | x8 | x8 | x8 | x8 | x8 | x8 | x8 | x8 | %34
 x8 | x8 | x8 | E2 E/B/A/G/ F/G/A/F/ D z | x8 | z c- c=B G4 | x8 | x8 | x8 | x8 | x8 | x8 | x8 | %47
 x8 | x8 | x8 | x8 | x8 | x8 | E2 E/B/A/G/ F/G/A/F/ D z | x8 | z c- c=B G4 | x8 | %57
[M:4/4] z GEF GC FE/D/ | E2 DC B,2 B,/4=A,/4B,/4A,/4B,/4A,/4B,/4A,/4 | G, G2 F2 E2 D/C/ | %60
 =B,2 C4 B,2 | C2 z E D/^F/G z2 | z4 z[I:staff +1] DB,D | %63
 E/[I:staff -1]C/A/G/ F/E/D/C/ =B,/F/E/D/ E/A/G/F/ | d/c/d- d/=B/c- c/A/c- c<B | %65
 c/G/A- A<G- G/=E/F- F<E | FC=B,C DG, CB,/=A,/ | G,/=B,/C- C/C/D- D/D/E- E/F/G | %68
 =E z/ F/ _D2- D/C/F- F/G/A | ^F z/ G/ E2- E/DC/ B,=A, | G, z[I:staff +1] G2 E2 G2 | G2 C2 F2 ED | %72
[I:staff -1] EcBc dG cB/=A/ | cA/G/ c/[I:staff +1]C/[I:staff -1]G- G/G/=A B/c/d | %74
 z/ c/B/A/ GA BE AG/F/ | G>F ED Ce A2 | z/ GF/ E=E z/ F/D z/ _E/F- | FE- E/=E/F/G/ A2 GF- | %78
 F/EF/- F/-FE/ z/ F/E/D/ E2 | z/ DC/- C/=A,/=B, CGEF | GC FE/D/ =EF GF/_E/ | FG=EF GC F_E/D/ | %82
 =E_E_DE FE/=D/ EG | z2 z/ =A/^F- F2 z G | !arpeggio!G8 |] %85
V:4
 x8 | x8 | x8 | x8 | x8 | x8 | x8 | x8 | x8 | x8 | x8 | z c/F/ GF E4 | x8 | x8 | x8 | x8 | x8 | %17
 x8 | x8 | x8 | x8 | x8 | x8 | z c/F/ GF E4 | x8 | x8 | x8 | x8 | x8 | x8 | x8 | x8 | x8 | x8 | %34
 x8 | x8 | x8 | x8 | x8 | z2 z/ GF/ E4 | x8 | x8 | x8 | x8 | x8 | x8 | x8 | x8 | x8 | x8 | x8 | %51
 x8 | x8 | x8 | x8 | z2 z/ GF/ E4 | x8 |[M:4/4] x8 | x8 | x8 | x8 | x8 | x8 | x8 | x8 | x8 | x8 | %67
 x8 | x8 | x8 | x8 | x8 | x8 | x8 | x8 | x8 | x8 | x8 | x8 | x8 | x8 | x8 | x8 | %83
 z2 z/ _A3/2- A2 z =F | !arpeggio!E8 |] %85
V:5
 x8 | x8 | x8 | x8 | x8 | x8 | x8 | x8 | x8 | x8 | x8 | x8 | x8 | x8 | x8 | x8 | x8 | x8 | x8 | %19
 x8 | x8 | x8 | x8 | x8 | x8 | x8 | x8 | x8 | x8 | x8 | x8 | x8 | x8 | x8 | x8 | x8 | x8 | x8 | %38
 x8 | x8 | x8 | x8 | x8 | x8 | x8 | x8 | x8 | x8 | x8 | x8 | x8 | x8 | x8 | x8 | x8 | x8 | x8 | %57
[M:4/4] x8 | x8 | x8 | x8 | x8 | x8 | x8 | x8 | x8 | x8 | x8 | x8 | x8 | x8 | x8 | x8 | x8 | x8 | %75
 z2 G,2 E,2 F,2 | G,2 C,2 F,2 E,D, | E,>G, A,G, F,D G,=A,/=B,/ | CC,=B,,C, D,G,, C,B,,/=A,,/ | %79
 =B,,C,F,,G,, C,, z z2 | z4 C, z z2 | z4 C, z z2 | z C,_D,C, =B,,F, E,/=D,/C,/D,/4E,/4 | %83
 ^F,,2 z2 z/ =B,/C/^F,/ G,G,, | !fermata![C,,C,]8 |] %85

